Numix/16/status/indicator-keyboard-Ga.svg

<?xml version="1.0" encoding="UTF-8" standalone="no"?>
<svg
   xmlns:dc="http://purl.org/dc/elements/1.1/"
   xmlns:cc="http://creativecommons.org/ns#"
   xmlns:rdf="http://www.w3.org/1999/02/22-rdf-syntax-ns#"
   xmlns:svg="http://www.w3.org/2000/svg"
   xmlns="http://www.w3.org/2000/svg"
   xmlns:sodipodi="http://sodipodi.sourceforge.net/DTD/sodipodi-0.dtd"
   xmlns:inkscape="http://www.inkscape.org/namespaces/inkscape"
   viewBox="0 0 16 16"
   id="svg2"
   version="1.1"
   inkscape:version="0.91 r13725"
   sodipodi:docname="indicator-keyboard-Ga.svg">
  <metadata
     id="metadata13">
    <rdf:RDF>
      <cc:Work
         rdf:about="">
        <dc:format>image/svg+xml</dc:format>
        <dc:type
           rdf:resource="http://purl.org/dc/dcmitype/StillImage" />
      </cc:Work>
    </rdf:RDF>
  </metadata>
  <defs
     id="defs11" />
  <sodipodi:namedview
     pagecolor="#ffffff"
     bordercolor="#666666"
     borderopacity="1"
     objecttolerance="10"
     gridtolerance="10"
     guidetolerance="10"
     inkscape:pageopacity="0"
     inkscape:pageshadow="2"
     inkscape:window-width="640"
     inkscape:window-height="480"
     id="namedview9"
     showgrid="false"
     inkscape:zoom="14.75"
     inkscape:cx="8"
     inkscape:cy="8"
     inkscape:window-x="65"
     inkscape:window-y="24"
     inkscape:window-maximized="0"
     inkscape:current-layer="svg2" />
  <path
     style="fill:#ececec;fill-opacity:1"
     d="M 1.5996094 0 C 0.71320937 2.9605947e-16 0 0.71320937 0 1.5996094 L 0 14.400391 C 2.9605947e-16 15.286791 0.71320937 16 1.5996094 16 L 14.400391 16 C 15.286791 16 16 15.286791 16 14.400391 L 16 1.5996094 C 16 0.71320937 15.286791 0 14.400391 0 L 1.5996094 0 z M 6.3203125 4.7519531 C 6.7823125 4.7519531 7.1628906 4.8022969 7.4628906 4.9042969 C 7.7628906 5.0002969 7.9830938 5.0935938 8.1210938 5.1835938 L 7.9140625 5.7050781 C 7.7460625 5.5850781 7.5184688 5.4899688 7.2304688 5.4179688 C 6.9424688 5.3399688 6.6289687 5.3007812 6.2929688 5.3007812 C 5.9809687 5.3007812 5.6881094 5.3567031 5.4121094 5.4707031 C 5.1361094 5.5847031 4.8954062 5.756375 4.6914062 5.984375 C 4.4874063 6.212375 4.3250781 6.4940781 4.2050781 6.8300781 C 4.0910781 7.1660781 4.0351563 7.556 4.0351562 8 C 4.0351562 8.414 4.0817344 8.789 4.1777344 9.125 C 4.2737344 9.455 4.4193281 9.7404688 4.6113281 9.9804688 C 4.8093281 10.214469 5.0518438 10.393531 5.3398438 10.519531 C 5.6278438 10.645531 5.9598906 10.708984 6.3378906 10.708984 C 6.6438906 10.708984 6.8995156 10.694063 7.1035156 10.664062 C 7.3135156 10.628063 7.4553437 10.594453 7.5273438 10.564453 L 7.5273438 8.171875 L 8.1386719 8.171875 L 8.1386719 10.951172 C 8.0246719 10.999172 7.7988906 11.060813 7.4628906 11.132812 C 7.1328906 11.210812 6.7262344 11.248047 6.2402344 11.248047 C 5.8322344 11.248047 5.4534687 11.177203 5.1054688 11.033203 C 4.7574687 10.889203 4.4552656 10.682109 4.1972656 10.412109 C 3.9452656 10.136109 3.7475156 9.7965312 3.6035156 9.3945312 C 3.4595156 8.9865312 3.3867188 8.522 3.3867188 8 C 3.3867188 7.478 3.4650937 7.0152812 3.6210938 6.6132812 C 3.7770938 6.2052812 3.986 5.8676563 4.25 5.5976562 C 4.52 5.3216563 4.8335 5.1107969 5.1875 4.9667969 C 5.5415 4.8227969 5.9183125 4.7519531 6.3203125 4.7519531 z M 10.939453 6.3613281 C 11.245453 6.3613281 11.502891 6.4060938 11.712891 6.4960938 C 11.928891 6.5800938 12.104328 6.7014219 12.236328 6.8574219 C 12.368328 7.0074219 12.463437 7.1864844 12.523438 7.3964844 C 12.583438 7.6064844 12.613281 7.8340781 12.613281 8.0800781 L 12.613281 11.015625 C 12.553281 11.033625 12.465562 11.054125 12.351562 11.078125 C 12.237563 11.096125 12.107031 11.116625 11.957031 11.140625 C 11.807031 11.164625 11.639125 11.183313 11.453125 11.195312 C 11.273125 11.213313 11.086531 11.222656 10.894531 11.222656 C 10.648531 11.222656 10.420938 11.194625 10.210938 11.140625 C 10.006937 11.086625 9.8259219 11.002672 9.6699219 10.888672 C 9.5199219 10.768672 9.4005469 10.619453 9.3105469 10.439453 C 9.2265469 10.253453 9.1835937 10.027672 9.1835938 9.7636719 C 9.1835938 9.5116719 9.232125 9.2952344 9.328125 9.1152344 C 9.424125 8.9352344 9.560375 8.7897813 9.734375 8.6757812 C 9.908375 8.5557812 10.113515 8.4680625 10.353516 8.4140625 C 10.593516 8.3600625 10.854719 8.3320312 11.136719 8.3320312 C 11.220719 8.3320312 11.308438 8.3395625 11.398438 8.3515625 C 11.494438 8.3575625 11.583969 8.3687187 11.667969 8.3867188 C 11.757969 8.3987187 11.832578 8.4136406 11.892578 8.4316406 C 11.958578 8.4436406 12.005297 8.45675 12.029297 8.46875 L 12.029297 8.1796875 C 12.029297 8.0176875 12.016188 7.8628906 11.992188 7.7128906 C 11.968187 7.5568906 11.914078 7.4188281 11.830078 7.2988281 C 11.752078 7.1728281 11.638281 7.0739531 11.488281 7.0019531 C 11.344281 6.9239531 11.152109 6.8847656 10.912109 6.8847656 C 10.570109 6.8847656 10.314484 6.9070781 10.146484 6.9550781 C 9.9784842 7.0030781 9.8572969 7.0422656 9.7792969 7.0722656 L 9.6972656 6.5605469 C 9.7992656 6.5125469 9.9560154 6.4677813 10.166016 6.4257812 C 10.382016 6.3837813 10.639453 6.3613281 10.939453 6.3613281 z M 11.119141 8.8378906 C 10.975141 8.8378906 10.825922 8.8490469 10.669922 8.8730469 C 10.513922 8.8910469 10.370281 8.9358125 10.238281 9.0078125 C 10.106281 9.0738125 9.9980627 9.1671094 9.9140625 9.2871094 C 9.8300625 9.4071094 9.7871094 9.5656719 9.7871094 9.7636719 C 9.7871094 9.9376718 9.8151406 10.085078 9.8691406 10.205078 C 9.9291406 10.325078 10.009328 10.420187 10.111328 10.492188 C 10.219328 10.564188 10.346234 10.618297 10.490234 10.654297 C 10.640234 10.684297 10.808141 10.699219 10.994141 10.699219 C 11.222141 10.699219 11.419891 10.693641 11.587891 10.681641 C 11.761891 10.663641 11.909297 10.643141 12.029297 10.619141 L 12.029297 8.9804688 C 11.963297 8.9504688 11.856891 8.920625 11.712891 8.890625 C 11.568891 8.854625 11.371141 8.8378906 11.119141 8.8378906 z "
     id="path4" />
</svg>

<svg xmlns="http://www.w3.org/2000/svg" viewBox="0 0 16 16">
 <path d="m 1.6 0 c -0.886 0 -1.6 0.713 -1.6 1.6 l 0 12.801 c 0 0.886 0.713 1.6 1.6 1.6 l 12.801 0 c 0.886 0 1.6 -0.713 1.6 -1.6 l 0 -12.801 c 0 -0.886 -0.713 -1.6 -1.6 -1.6 l -12.801 0 z m 4.721 4.752 c 0.462 0 0.843 0.05 1.143 0.152 c 0.3 0.096 0.52 0.189 0.658 0.279 l -0.207 0.521 c -0.168 -0.12 -0.396 -0.215 -0.684 -0.287 c -0.288 -0.078 -0.602 -0.117 -0.938 -0.117 c -0.312 0 -0.605 0.056 -0.881 0.17 c -0.276 0.114 -0.517 0.286 -0.721 0.514 c -0.204 0.228 -0.366 0.51 -0.486 0.846 c -0.114 0.336 -0.17 0.726 -0.17 1.17 c 0 0.414 0.047 0.789 0.143 1.125 c 0.096 0.33 0.242 0.615 0.434 0.855 c 0.198 0.234 0.441 0.413 0.729 0.539 c 0.288 0.126 0.62 0.189 0.998 0.189 c 0.306 0 0.562 -0.015 0.766 -0.045 c 0.21 -0.036 0.352 -0.07 0.424 -0.1 l 0 -2.393 l 0.611 0 l 0 2.779 c -0.114 0.048 -0.34 0.11 -0.676 0.182 c -0.33 0.078 -0.737 0.115 -1.223 0.115 c -0.408 0 -0.787 -0.071 -1.135 -0.215 c -0.348 -0.144 -0.65 -0.351 -0.908 -0.621 c -0.252 -0.276 -0.45 -0.616 -0.594 -1.018 c -0.144 -0.408 -0.217 -0.873 -0.217 -1.395 c 0 -0.522 0.078 -0.985 0.234 -1.387 c 0.156 -0.408 0.365 -0.746 0.629 -1.016 c 0.27 -0.276 0.583 -0.487 0.938 -0.631 c 0.354 -0.144 0.731 -0.215 1.133 -0.215 z m 4.619 1.609 c 0.306 0 0.563 0.045 0.773 0.135 c 0.216 0.084 0.391 0.205 0.523 0.361 c 0.132 0.15 0.227 0.329 0.287 0.539 c 0.06 0.21 0.09 0.438 0.09 0.684 l 0 2.936 c -0.06 0.018 -0.148 0.039 -0.262 0.063 c -0.114 0.018 -0.245 0.039 -0.395 0.063 c -0.15 0.024 -0.318 0.043 -0.504 0.055 c -0.18 0.018 -0.367 0.027 -0.559 0.027 c -0.246 0 -0.474 -0.028 -0.684 -0.082 c -0.204 -0.054 -0.385 -0.138 -0.541 -0.252 c -0.15 -0.12 -0.269 -0.269 -0.359 -0.449 c -0.084 -0.186 -0.127 -0.412 -0.127 -0.676 c 0 -0.252 0.049 -0.468 0.145 -0.648 c 0.096 -0.18 0.232 -0.325 0.406 -0.439 c 0.174 -0.12 0.379 -0.208 0.619 -0.262 c 0.24 -0.054 0.501 -0.082 0.783 -0.082 c 0.084 0 0.172 0.008 0.262 0.02 c 0.096 0.006 0.186 0.017 0.27 0.035 c 0.09 0.012 0.165 0.027 0.225 0.045 c 0.066 0.012 0.113 0.025 0.137 0.037 l 0 -0.289 c 0 -0.162 -0.013 -0.317 -0.037 -0.467 c -0.024 -0.156 -0.078 -0.294 -0.162 -0.414 c -0.078 -0.126 -0.192 -0.225 -0.342 -0.297 c -0.144 -0.078 -0.336 -0.117 -0.576 -0.117 c -0.342 0 -0.598 0.022 -0.766 0.07 c -0.168 0.048 -0.289 0.087 -0.367 0.117 l -0.082 -0.512 c 0.102 -0.048 0.259 -0.093 0.469 -0.135 c 0.216 -0.042 0.473 -0.064 0.773 -0.064 z m 0.18 2.477 c -0.144 0 -0.293 0.011 -0.449 0.035 c -0.156 0.018 -0.3 0.063 -0.432 0.135 c -0.132 0.066 -0.24 0.159 -0.324 0.279 c -0.084 0.12 -0.127 0.279 -0.127 0.477 c 0 0.174 0.028 0.321 0.082 0.441 c 0.06 0.12 0.14 0.215 0.242 0.287 c 0.108 0.072 0.235 0.126 0.379 0.162 c 0.15 0.03 0.318 0.045 0.504 0.045 c 0.228 0 0.426 -0.006 0.594 -0.018 c 0.174 -0.018 0.321 -0.039 0.441 -0.063 l 0 -1.639 c -0.066 -0.03 -0.172 -0.06 -0.316 -0.09 c -0.144 -0.036 -0.342 -0.053 -0.594 -0.053 z" style="fill:#ececec;fill-opacity:1"/>
</svg>
